images/176157.svg

<?xml version="1.0" encoding="UTF-8"?>
<svg xmlns="http://www.w3.org/2000/svg" xmlns:xlink="http://www.w3.org/1999/xlink" width="300pt" height="300pt" viewBox="0 0 300 300" version="1.1">
<defs>
<g>
<symbol overflow="visible" id="glyph0-0">
<path style="stroke:none;" d="M 0.453125 1.59375 L 0.453125 -6.34375 L 4.953125 -6.34375 L 4.953125 1.59375 Z M 0.953125 1.09375 L 4.453125 1.09375 L 4.453125 -5.84375 L 0.953125 -5.84375 Z M 0.953125 1.09375 "/>
</symbol>
<symbol overflow="visible" id="glyph0-1">
<path style="stroke:none;" d="M 0.890625 -6.5625 L 2.078125 -6.5625 L 4.984375 -1.078125 L 4.984375 -6.5625 L 5.84375 -6.5625 L 5.84375 0 L 4.65625 0 L 1.75 -5.484375 L 1.75 0 L 0.890625 0 Z M 0.890625 -6.5625 "/>
</symbol>
<symbol overflow="visible" id="glyph0-2">
<path style="stroke:none;" d="M 5.796875 -6.0625 L 5.796875 -5.125 C 5.492188 -5.394531 5.171875 -5.597656 4.828125 -5.734375 C 4.492188 -5.878906 4.140625 -5.953125 3.765625 -5.953125 C 3.015625 -5.953125 2.4375 -5.722656 2.03125 -5.265625 C 1.632812 -4.804688 1.4375 -4.144531 1.4375 -3.28125 C 1.4375 -2.414062 1.632812 -1.753906 2.03125 -1.296875 C 2.4375 -0.835938 3.015625 -0.609375 3.765625 -0.609375 C 4.140625 -0.609375 4.492188 -0.675781 4.828125 -0.8125 C 5.171875 -0.945312 5.492188 -1.15625 5.796875 -1.4375 L 5.796875 -0.5 C 5.484375 -0.289062 5.15625 -0.132812 4.8125 -0.03125 C 4.46875 0.0703125 4.097656 0.125 3.703125 0.125 C 2.710938 0.125 1.929688 -0.175781 1.359375 -0.78125 C 0.785156 -1.394531 0.5 -2.226562 0.5 -3.28125 C 0.5 -4.332031 0.785156 -5.160156 1.359375 -5.765625 C 1.929688 -6.378906 2.710938 -6.6875 3.703125 -6.6875 C 4.097656 -6.6875 4.46875 -6.632812 4.8125 -6.53125 C 5.164062 -6.425781 5.492188 -6.269531 5.796875 -6.0625 Z M 5.796875 -6.0625 "/>
</symbol>
<symbol overflow="visible" id="glyph0-3">
<path style="stroke:none;" d="M 0.84375 -6.84375 L 1.65625 -6.84375 L 1.65625 0 L 0.84375 0 Z M 0.84375 -6.84375 "/>
</symbol>
<symbol overflow="visible" id="glyph0-4">
<path style="stroke:none;" d="M 0.890625 -6.5625 L 1.765625 -6.5625 L 1.765625 -3.875 L 5 -3.875 L 5 -6.5625 L 5.890625 -6.5625 L 5.890625 0 L 5 0 L 5 -3.125 L 1.765625 -3.125 L 1.765625 0 L 0.890625 0 Z M 0.890625 -6.5625 "/>
</symbol>
</g>
</defs>
<g id="surface49389">
<rect x="0" y="0" width="300" height="300" style="fill:rgb(100%,100%,100%);fill-opacity:1;stroke:none;"/>
<path style="fill:none;stroke-width:1.2;stroke-linecap:butt;stroke-linejoin:miter;stroke:rgb(0%,0%,0%);stroke-opacity:1;stroke-miterlimit:10;" d="M 63.003906 95.878906 L 68.75 118.449219 "/>
<path style="fill:none;stroke-width:1.2;stroke-linecap:butt;stroke-linejoin:miter;stroke:rgb(0%,0%,0%);stroke-opacity:1;stroke-miterlimit:10;" d="M 68.75 118.449219 L 91.164062 124.757812 "/>
<path style="fill:none;stroke-width:1.2;stroke-linecap:butt;stroke-linejoin:miter;stroke:rgb(0%,0%,0%);stroke-opacity:1;stroke-miterlimit:10;" d="M 91.164062 124.757812 L 94.035156 136.042969 "/>
<path style="fill:none;stroke-width:1.2;stroke-linecap:butt;stroke-linejoin:miter;stroke:rgb(0%,0%,100%);stroke-opacity:1;stroke-miterlimit:10;" d="M 94.035156 136.042969 L 96.90625 147.328125 "/>
<path style="fill:none;stroke-width:1.2;stroke-linecap:butt;stroke-linejoin:miter;stroke:rgb(0%,0%,100%);stroke-opacity:1;stroke-miterlimit:10;" d="M 96.90625 147.328125 L 88.570312 155.457031 "/>
<path style="fill:none;stroke-width:1.2;stroke-linecap:butt;stroke-linejoin:miter;stroke:rgb(0%,0%,0%);stroke-opacity:1;stroke-miterlimit:10;" d="M 88.570312 155.457031 L 80.234375 163.582031 "/>
<path style="fill:none;stroke-width:1.2;stroke-linecap:butt;stroke-linejoin:miter;stroke:rgb(0%,0%,100%);stroke-opacity:1;stroke-miterlimit:10;" d="M 96.90625 147.328125 L 108.117188 150.480469 "/>
<path style="fill:none;stroke-width:1.2;stroke-linecap:butt;stroke-linejoin:miter;stroke:rgb(0%,0%,0%);stroke-opacity:1;stroke-miterlimit:10;" d="M 108.117188 150.480469 L 119.324219 153.636719 "/>
<path style=" stroke:none;fill-rule:nonzero;fill:rgb(100%,100%,100%);fill-opacity:1;" d="M 93.90625 141.828125 L 100.90625 141.828125 L 100.90625 152.828125 L 93.90625 152.828125 Z M 93.90625 141.828125 "/>
<g style="fill:rgb(0%,0%,100%);fill-opacity:1;">
  <use xlink:href="#glyph0-1" x="93.90625" y="150.491211"/>
</g>
<path style="fill:none;stroke-width:1.2;stroke-linecap:butt;stroke-linejoin:miter;stroke:rgb(0%,0%,0%);stroke-opacity:1;stroke-miterlimit:10;" d="M 80.234375 163.582031 L 57.816406 157.273438 "/>
<path style="fill:none;stroke-width:1.2;stroke-linecap:butt;stroke-linejoin:miter;stroke:rgb(0%,0%,0%);stroke-opacity:1;stroke-miterlimit:10;" d="M 57.816406 157.273438 L 35.25 163.015625 "/>
<path style="fill:none;stroke-width:1.2;stroke-linecap:butt;stroke-linejoin:miter;stroke:rgb(0%,0%,0%);stroke-opacity:1;stroke-miterlimit:10;" d="M 41.558594 140.601562 L 57.816406 157.273438 "/>
<path style="fill:none;stroke-width:1.2;stroke-linecap:butt;stroke-linejoin:miter;stroke:rgb(0%,0%,0%);stroke-opacity:1;stroke-miterlimit:10;" d="M 35.25 163.015625 L 41.558594 140.601562 "/>
<path style="fill:none;stroke-width:1.2;stroke-linecap:butt;stroke-linejoin:miter;stroke:rgb(0%,0%,0%);stroke-opacity:1;stroke-miterlimit:10;" d="M 119.324219 153.636719 L 122.195312 164.921875 "/>
<path style="fill:none;stroke-width:1.2;stroke-linecap:butt;stroke-linejoin:miter;stroke:rgb(0%,0%,100%);stroke-opacity:1;stroke-miterlimit:10;" d="M 122.195312 164.921875 L 125.066406 176.203125 "/>
<path style="fill:none;stroke-width:1.2;stroke-linecap:butt;stroke-linejoin:miter;stroke:rgb(0%,0%,0%);stroke-opacity:1;stroke-miterlimit:10;" d="M 125.207031 154.542969 L 127.503906 163.570312 "/>
<path style="fill:none;stroke-width:1.2;stroke-linecap:butt;stroke-linejoin:miter;stroke:rgb(0%,0%,100%);stroke-opacity:1;stroke-miterlimit:10;" d="M 127.503906 163.570312 L 129.800781 172.597656 "/>
<path style="fill:none;stroke-width:1.2;stroke-linecap:butt;stroke-linejoin:miter;stroke:rgb(0%,0%,0%);stroke-opacity:1;stroke-miterlimit:10;" d="M 135.996094 137.378906 L 119.324219 153.636719 "/>
<path style="fill:none;stroke-width:1.2;stroke-linecap:butt;stroke-linejoin:miter;stroke:rgb(0%,0%,100%);stroke-opacity:1;stroke-miterlimit:10;" d="M 125.066406 176.203125 L 136.273438 179.359375 "/>
<path style="fill:none;stroke-width:1.2;stroke-linecap:butt;stroke-linejoin:miter;stroke:rgb(0%,0%,0%);stroke-opacity:1;stroke-miterlimit:10;" d="M 136.273438 179.359375 L 147.484375 182.515625 "/>
<path style=" stroke:none;fill-rule:nonzero;fill:rgb(100%,100%,100%);fill-opacity:1;" d="M 122.066406 170.703125 L 129.066406 170.703125 L 129.066406 181.703125 L 122.066406 181.703125 Z M 122.066406 170.703125 "/>
<g style="fill:rgb(0%,0%,100%);fill-opacity:1;">
  <use xlink:href="#glyph0-1" x="122.066406" y="179.366211"/>
</g>
<path style="fill:none;stroke-width:1.2;stroke-linecap:butt;stroke-linejoin:miter;stroke:rgb(0%,0%,0%);stroke-opacity:1;stroke-miterlimit:10;" d="M 147.484375 182.515625 L 155.820312 174.386719 "/>
<path style="fill:none;stroke-width:1.2;stroke-linecap:butt;stroke-linejoin:miter;stroke:rgb(0%,0%,100%);stroke-opacity:1;stroke-miterlimit:10;" d="M 155.820312 174.386719 L 164.15625 166.257812 "/>
<path style="fill:none;stroke-width:1.2;stroke-linecap:butt;stroke-linejoin:miter;stroke:rgb(0%,0%,0%);stroke-opacity:1;stroke-miterlimit:10;" d="M 145.324219 176.964844 L 151.992188 170.464844 "/>
<path style="fill:none;stroke-width:1.2;stroke-linecap:butt;stroke-linejoin:miter;stroke:rgb(0%,0%,100%);stroke-opacity:1;stroke-miterlimit:10;" d="M 151.992188 170.464844 L 158.664062 163.960938 "/>
<path style="fill:none;stroke-width:1.2;stroke-linecap:butt;stroke-linejoin:miter;stroke:rgb(0%,0%,0%);stroke-opacity:1;stroke-miterlimit:10;" d="M 147.484375 182.515625 L 153.226562 205.082031 "/>
<path style="fill:none;stroke-width:1.2;stroke-linecap:butt;stroke-linejoin:miter;stroke:rgb(0%,0%,100%);stroke-opacity:1;stroke-miterlimit:10;" d="M 164.15625 166.257812 L 161.285156 154.972656 "/>
<path style="fill:none;stroke-width:1.2;stroke-linecap:butt;stroke-linejoin:miter;stroke:rgb(0%,0%,0%);stroke-opacity:1;stroke-miterlimit:10;" d="M 161.285156 154.972656 L 158.414062 143.691406 "/>
<path style=" stroke:none;fill-rule:nonzero;fill:rgb(100%,100%,100%);fill-opacity:1;" d="M 161.15625 160.757812 L 168.15625 160.757812 L 168.15625 171.757812 L 161.15625 171.757812 Z M 161.15625 160.757812 "/>
<g style="fill:rgb(0%,0%,100%);fill-opacity:1;">
  <use xlink:href="#glyph0-1" x="161.15625" y="169.420898"/>
</g>
<path style="fill:none;stroke-width:1.2;stroke-linecap:butt;stroke-linejoin:miter;stroke:rgb(0%,0%,0%);stroke-opacity:1;stroke-miterlimit:10;" d="M 158.414062 143.691406 L 135.996094 137.378906 "/>
<path style="fill:none;stroke-width:1.2;stroke-linecap:butt;stroke-linejoin:miter;stroke:rgb(0%,0%,0%);stroke-opacity:1;stroke-miterlimit:10;" d="M 154.6875 148.332031 L 136.753906 143.285156 "/>
<path style="fill:none;stroke-width:1.2;stroke-linecap:butt;stroke-linejoin:miter;stroke:rgb(0%,0%,0%);stroke-opacity:1;stroke-miterlimit:10;" d="M 158.414062 143.691406 L 166.75 135.5625 "/>
<path style="fill:none;stroke-width:1.2;stroke-linecap:butt;stroke-linejoin:miter;stroke:rgb(0%,0%,100%);stroke-opacity:1;stroke-miterlimit:10;" d="M 166.75 135.5625 L 175.085938 127.433594 "/>
<path style="fill:none;stroke-width:1.2;stroke-linecap:butt;stroke-linejoin:miter;stroke:rgb(0%,0%,0%);stroke-opacity:1;stroke-miterlimit:10;" d="M 135.996094 137.378906 L 133.125 126.09375 "/>
<path style="fill:none;stroke-width:1.2;stroke-linecap:butt;stroke-linejoin:miter;stroke:rgb(0%,80%,0%);stroke-opacity:1;stroke-miterlimit:10;" d="M 133.125 126.09375 L 130.253906 114.8125 "/>
<path style=" stroke:none;fill-rule:nonzero;fill:rgb(100%,100%,100%);fill-opacity:1;" d="M 125.253906 109.3125 L 135.253906 109.3125 L 135.253906 120.3125 L 125.253906 120.3125 Z M 125.253906 109.3125 "/>
<g style="fill:rgb(0%,80%,0%);fill-opacity:1;">
  <use xlink:href="#glyph0-2" x="125.253906" y="117.975586"/>
  <use xlink:href="#glyph0-3" x="131.767578" y="117.975586"/>
</g>
<path style="fill:none;stroke-width:1.2;stroke-linecap:butt;stroke-linejoin:miter;stroke:rgb(0%,0%,100%);stroke-opacity:1;stroke-miterlimit:10;" d="M 175.085938 127.433594 L 186.292969 130.585938 "/>
<path style="fill:none;stroke-width:1.2;stroke-linecap:butt;stroke-linejoin:miter;stroke:rgb(0%,0%,0%);stroke-opacity:1;stroke-miterlimit:10;" d="M 186.292969 130.585938 L 197.5 133.742188 "/>
<path style=" stroke:none;fill-rule:nonzero;fill:rgb(100%,100%,100%);fill-opacity:1;" d="M 168.085938 121.933594 L 182.085938 121.933594 L 182.085938 132.933594 L 168.085938 132.933594 Z M 168.085938 121.933594 "/>
<g style="fill:rgb(0%,0%,100%);fill-opacity:1;">
  <use xlink:href="#glyph0-1" x="168.085938" y="130.59668"/>
  <use xlink:href="#glyph0-4" x="175.063477" y="130.59668"/>
</g>
<path style="fill:none;stroke-width:1.2;stroke-linecap:butt;stroke-linejoin:miter;stroke:rgb(0%,0%,0%);stroke-opacity:1;stroke-miterlimit:10;" d="M 197.5 133.742188 L 203.246094 156.308594 "/>
<path style="fill:none;stroke-width:1.2;stroke-linecap:butt;stroke-linejoin:miter;stroke:rgb(0%,0%,0%);stroke-opacity:1;stroke-miterlimit:10;" d="M 203.386719 134.648438 L 207.980469 152.703125 "/>
<path style="fill:none;stroke-width:1.2;stroke-linecap:butt;stroke-linejoin:miter;stroke:rgb(0%,0%,0%);stroke-opacity:1;stroke-miterlimit:10;" d="M 214.175781 117.484375 L 197.5 133.742188 "/>
<path style="fill:none;stroke-width:1.2;stroke-linecap:butt;stroke-linejoin:miter;stroke:rgb(0%,0%,0%);stroke-opacity:1;stroke-miterlimit:10;" d="M 203.246094 156.308594 L 225.660156 162.621094 "/>
<path style="fill:none;stroke-width:1.2;stroke-linecap:butt;stroke-linejoin:miter;stroke:rgb(0%,0%,0%);stroke-opacity:1;stroke-miterlimit:10;" d="M 203.246094 156.308594 L 194.910156 164.4375 "/>
<path style="fill:none;stroke-width:1.2;stroke-linecap:butt;stroke-linejoin:miter;stroke:rgb(0%,80%,0%);stroke-opacity:1;stroke-miterlimit:10;" d="M 194.910156 164.4375 L 186.570312 172.566406 "/>
<path style="fill:none;stroke-width:1.2;stroke-linecap:butt;stroke-linejoin:miter;stroke:rgb(0%,0%,0%);stroke-opacity:1;stroke-miterlimit:10;" d="M 225.660156 162.621094 L 242.332031 146.363281 "/>
<path style="fill:none;stroke-width:1.2;stroke-linecap:butt;stroke-linejoin:miter;stroke:rgb(0%,0%,0%);stroke-opacity:1;stroke-miterlimit:10;" d="M 223.503906 157.070312 L 236.839844 144.066406 "/>
<path style="fill:none;stroke-width:1.2;stroke-linecap:butt;stroke-linejoin:miter;stroke:rgb(0%,0%,0%);stroke-opacity:1;stroke-miterlimit:10;" d="M 242.332031 146.363281 L 236.589844 123.796875 "/>
<path style="fill:none;stroke-width:1.2;stroke-linecap:butt;stroke-linejoin:miter;stroke:rgb(0%,0%,0%);stroke-opacity:1;stroke-miterlimit:10;" d="M 242.332031 146.363281 L 253.542969 149.519531 "/>
<path style="fill:none;stroke-width:1.2;stroke-linecap:butt;stroke-linejoin:miter;stroke:rgb(0%,80%,0%);stroke-opacity:1;stroke-miterlimit:10;" d="M 253.542969 149.519531 L 264.75 152.671875 "/>
<path style="fill:none;stroke-width:1.2;stroke-linecap:butt;stroke-linejoin:miter;stroke:rgb(0%,0%,0%);stroke-opacity:1;stroke-miterlimit:10;" d="M 236.589844 123.796875 L 214.175781 117.484375 "/>
<path style="fill:none;stroke-width:1.2;stroke-linecap:butt;stroke-linejoin:miter;stroke:rgb(0%,0%,0%);stroke-opacity:1;stroke-miterlimit:10;" d="M 232.863281 128.4375 L 214.929688 123.390625 "/>
<path style="fill:none;stroke-width:1.2;stroke-linecap:butt;stroke-linejoin:miter;stroke:rgb(0%,0%,0%);stroke-opacity:1;stroke-miterlimit:10;" d="M 214.175781 117.484375 L 211.304688 106.199219 "/>
<path style="fill:none;stroke-width:1.2;stroke-linecap:butt;stroke-linejoin:miter;stroke:rgb(0%,80%,0%);stroke-opacity:1;stroke-miterlimit:10;" d="M 211.304688 106.199219 L 208.433594 94.917969 "/>
<path style=" stroke:none;fill-rule:nonzero;fill:rgb(100%,100%,100%);fill-opacity:1;" d="M 203.433594 89.417969 L 213.433594 89.417969 L 213.433594 100.417969 L 203.433594 100.417969 Z M 203.433594 89.417969 "/>
<g style="fill:rgb(0%,80%,0%);fill-opacity:1;">
  <use xlink:href="#glyph0-2" x="203.433594" y="98.081055"/>
  <use xlink:href="#glyph0-3" x="209.947266" y="98.081055"/>
</g>
<path style=" stroke:none;fill-rule:nonzero;fill:rgb(100%,100%,100%);fill-opacity:1;" d="M 259.75 147.171875 L 269.75 147.171875 L 269.75 158.171875 L 259.75 158.171875 Z M 259.75 147.171875 "/>
<g style="fill:rgb(0%,80%,0%);fill-opacity:1;">
  <use xlink:href="#glyph0-2" x="259.75" y="155.834961"/>
  <use xlink:href="#glyph0-3" x="266.263672" y="155.834961"/>
</g>
<path style=" stroke:none;fill-rule:nonzero;fill:rgb(100%,100%,100%);fill-opacity:1;" d="M 176.570312 167.066406 L 186.570312 167.066406 L 186.570312 178.066406 L 176.570312 178.066406 Z M 176.570312 167.066406 "/>
<g style="fill:rgb(0%,80%,0%);fill-opacity:1;">
  <use xlink:href="#glyph0-2" x="176.570312" y="175.729492"/>
  <use xlink:href="#glyph0-3" x="183.083984" y="175.729492"/>
</g>
</g>
</svg>

<svg xmlns="http://www.w3.org/2000/svg" xmlns:xlink="http://www.w3.org/1999/xlink" width="300pt" height="300pt" viewBox="0 0 300 300"><defs><symbol overflow="visible"><path d="M.453 1.594v-7.938h4.5v7.938zm.5-.5h3.5v-6.938h-3.5zm0 0"/></symbol><symbol overflow="visible" id="a"><path d="M.89-6.563H2.08l2.906 5.485v-5.484h.86V0H4.656L1.75-5.484V0H.89zm0 0"/></symbol><symbol overflow="visible" id="b"><path d="M5.797-6.063v.938c-.305-.27-.625-.473-.97-.61-.335-.144-.686-.218-1.06-.218-.75 0-1.33.23-1.736.687-.397.46-.592 1.12-.592 1.985 0 .866.195 1.526.593 1.983.408.46.986.688 1.736.688.375 0 .726-.066 1.062-.203.344-.132.664-.343.97-.625V-.5c-.314.21-.642.367-.986.47-.343.1-.714.155-1.11.155-.99 0-1.772-.3-2.343-.906C.784-1.396.5-2.228.5-3.28c0-1.052.285-1.88.86-2.486.57-.613 1.35-.92 2.343-.92.395-.002.766.053 1.11.155.35.104.68.26.984.468zm0 0"/></symbol><symbol overflow="visible" id="c"><path d="M.844-6.844h.812V0H.844zm0 0"/></symbol><symbol overflow="visible" id="d"><path d="M.89-6.563h.876v2.688H5v-2.688h.89V0H5v-3.125H1.766V0H.89zm0 0"/></symbol></defs><g><path fill="#fff" d="M0 0h300v300H0z"/><path d="M63.004 95.88l5.746 22.57M68.75 118.45l22.414 6.308M91.164 124.758l2.87 11.285" stroke-width="1.2" stroke="#000" stroke-miterlimit="10" fill="none"/><path d="M94.035 136.043l2.87 11.285M96.906 147.328l-8.336 8.13" stroke-width="1.2" stroke="#00f" stroke-miterlimit="10" fill="none"/><path d="M88.57 155.457l-8.336 8.125" stroke-width="1.2" stroke="#000" stroke-miterlimit="10" fill="none"/><path d="M96.906 147.328l11.21 3.152" stroke-width="1.2" stroke="#00f" stroke-miterlimit="10" fill="none"/><path d="M108.117 150.48l11.207 3.157" stroke-width="1.2" stroke="#000" stroke-miterlimit="10" fill="none"/><path d="M93.906 141.828h7v11h-7zm0 0" fill="#fff"/><use xlink:href="#a" x="93.906" y="150.491" fill="#00f"/><path d="M80.234 163.582l-22.418-6.31M57.816 157.273l-22.566 5.743M41.56 140.602l16.256 16.67M35.25 163.016l6.31-22.414M119.324 153.637l2.87 11.285" stroke-width="1.2" stroke="#000" stroke-miterlimit="10" fill="none"/><path d="M122.195 164.922l2.87 11.28" stroke-width="1.2" stroke="#00f" stroke-miterlimit="10" fill="none"/><path d="M125.207 154.543l2.297 9.027" stroke-width="1.2" stroke="#000" stroke-miterlimit="10" fill="none"/><path d="M127.504 163.57l2.297 9.028" stroke-width="1.2" stroke="#00f" stroke-miterlimit="10" fill="none"/><path d="M135.996 137.38l-16.672 16.257" stroke-width="1.2" stroke="#000" stroke-miterlimit="10" fill="none"/><path d="M125.066 176.203l11.207 3.156" stroke-width="1.2" stroke="#00f" stroke-miterlimit="10" fill="none"/><path d="M136.273 179.36l11.21 3.156" stroke-width="1.2" stroke="#000" stroke-miterlimit="10" fill="none"/><path d="M122.066 170.703h7v11h-7zm0 0" fill="#fff"/><use xlink:href="#a" x="122.066" y="179.366" fill="#00f"/><path d="M147.484 182.516l8.336-8.13" stroke-width="1.2" stroke="#000" stroke-miterlimit="10" fill="none"/><path d="M155.82 174.387l8.336-8.13" stroke-width="1.2" stroke="#00f" stroke-miterlimit="10" fill="none"/><path d="M145.324 176.965l6.668-6.5" stroke-width="1.2" stroke="#000" stroke-miterlimit="10" fill="none"/><path d="M151.992 170.465l6.672-6.504" stroke-width="1.2" stroke="#00f" stroke-miterlimit="10" fill="none"/><path d="M147.484 182.516l5.743 22.566" stroke-width="1.2" stroke="#000" stroke-miterlimit="10" fill="none"/><path d="M164.156 166.258l-2.87-11.285" stroke-width="1.2" stroke="#00f" stroke-miterlimit="10" fill="none"/><path d="M161.285 154.973l-2.87-11.282" stroke-width="1.2" stroke="#000" stroke-miterlimit="10" fill="none"/><path d="M161.156 160.758h7v11h-7zm0 0" fill="#fff"/><use xlink:href="#a" x="161.156" y="169.421" fill="#00f"/><path d="M158.414 143.69l-22.418-6.31M154.688 148.332l-17.934-5.047M158.414 143.69l8.336-8.127" stroke-width="1.2" stroke="#000" stroke-miterlimit="10" fill="none"/><path d="M166.75 135.563l8.336-8.13" stroke-width="1.2" stroke="#00f" stroke-miterlimit="10" fill="none"/><path d="M135.996 137.38l-2.87-11.286" stroke-width="1.2" stroke="#000" stroke-miterlimit="10" fill="none"/><path d="M133.125 126.094l-2.87-11.28" stroke-width="1.2" stroke="#0c0" stroke-miterlimit="10" fill="none"/><path d="M125.254 109.313h10v11h-10zm0 0" fill="#fff"/><g fill="#0c0"><use xlink:href="#b" x="125.254" y="117.976"/><use xlink:href="#c" x="131.768" y="117.976"/></g><path d="M175.086 127.434l11.207 3.152" stroke-width="1.2" stroke="#00f" stroke-miterlimit="10" fill="none"/><path d="M186.293 130.586l11.207 3.156" stroke-width="1.2" stroke="#000" stroke-miterlimit="10" fill="none"/><path d="M168.086 121.934h14v11h-14zm0 0" fill="#fff"/><g fill="#00f"><use xlink:href="#a" x="168.086" y="130.597"/><use xlink:href="#d" x="175.063" y="130.597"/></g><path d="M197.5 133.742l5.746 22.567M203.387 134.648l4.593 18.055M214.176 117.484L197.5 133.742M203.246 156.31l22.414 6.31M203.246 156.31l-8.336 8.127" stroke-width="1.2" stroke="#000" stroke-miterlimit="10" fill="none"/><path d="M194.91 164.438l-8.34 8.128" stroke-width="1.2" stroke="#0c0" stroke-miterlimit="10" fill="none"/><path d="M225.66 162.62l16.672-16.257M223.504 157.07l13.336-13.004M242.332 146.363l-5.742-22.566M242.332 146.363l11.21 3.157" stroke-width="1.2" stroke="#000" stroke-miterlimit="10" fill="none"/><path d="M253.543 149.52l11.207 3.152" stroke-width="1.2" stroke="#0c0" stroke-miterlimit="10" fill="none"/><path d="M236.59 123.797l-22.414-6.313M232.863 128.438l-17.933-5.047M214.176 117.484l-2.87-11.285" stroke-width="1.2" stroke="#000" stroke-miterlimit="10" fill="none"/><path d="M211.305 106.2l-2.87-11.282" stroke-width="1.2" stroke="#0c0" stroke-miterlimit="10" fill="none"/><path d="M203.434 89.418h10v11h-10zm0 0" fill="#fff"/><g fill="#0c0"><use xlink:href="#b" x="203.434" y="98.081"/><use xlink:href="#c" x="209.947" y="98.081"/></g><path d="M259.75 147.172h10v11h-10zm0 0" fill="#fff"/><g fill="#0c0"><use xlink:href="#b" x="259.75" y="155.835"/><use xlink:href="#c" x="266.264" y="155.835"/></g><path d="M176.57 167.066h10v11h-10zm0 0" fill="#fff"/><g fill="#0c0"><use xlink:href="#b" x="176.57" y="175.729"/><use xlink:href="#c" x="183.084" y="175.729"/></g></g></svg>
